source/frontend/assets/images/icon/youtube.svg

<svg width="32" height="32" viewBox="0 0 32 32" fill="none" xmlns="http://www.w3.org/2000/svg">
<path fill-rule="evenodd" clip-rule="evenodd" d="M9.06351 5.2947C13.6805 4.90177 18.3186 4.90177 22.9356 5.2947L26.0361 5.55971C26.8759 5.63093 27.6695 6.00588 28.2907 6.6248C28.9118 7.24372 29.3246 8.071 29.4633 8.9748C30.1789 13.6276 30.1789 18.3753 29.4633 23.0266C29.3246 23.9302 28.912 24.7573 28.2912 25.3762C27.6704 25.9951 26.877 26.3702 26.0375 26.4417L22.937 26.7052C18.3195 27.0983 13.6809 27.0983 9.06351 26.7052L5.96299 26.4417C5.12324 26.3705 4.32956 25.9955 3.70844 25.3766C3.08733 24.7577 2.67452 23.9304 2.53581 23.0266C1.8214 18.3749 1.8214 13.6265 2.53581 8.9748C2.67446 8.07124 3.08706 7.24413 3.7079 6.62524C4.32874 6.00634 5.1221 5.63125 5.96161 5.55971L9.06213 5.2962L9.06351 5.2947ZM13.2312 19.72V12.2815C13.2313 12.2016 13.2509 12.1233 13.2879 12.0543C13.3249 11.9854 13.3781 11.9284 13.4419 11.889C13.5058 11.8497 13.5781 11.8295 13.6514 11.8304C13.7248 11.8314 13.7967 11.8535 13.8596 11.8945L19.5582 15.6137C19.6196 15.6539 19.6703 15.7106 19.7055 15.7785C19.7408 15.8463 19.7593 15.9228 19.7593 16.0007C19.7593 16.0786 19.7408 16.1552 19.7055 16.223C19.6703 16.2908 19.6196 16.3475 19.5582 16.3877L13.8596 20.1069C13.7967 20.1479 13.7248 20.17 13.6514 20.171C13.5781 20.1719 13.5058 20.1517 13.4419 20.1124C13.3781 20.0731 13.3249 20.016 13.2879 19.9471C13.2509 19.8782 13.2313 19.7998 13.2312 19.72Z" fill="#77889A"/>
</svg>

<svg xmlns="http://www.w3.org/2000/svg" width="32" height="32" viewBox="0 0 32 32">
  <path fill-rule="evenodd" d="M9.064 5.295a81.771 81.771 0 0 1 13.872 0l3.1.265c.84.07 1.633.446 2.255 1.065a4.218 4.218 0 0 1 1.172 2.35c.716 4.653.716 9.4 0 14.052a4.22 4.22 0 0 1-1.172 2.35 3.63 3.63 0 0 1-2.253 1.065l-3.101.263a81.752 81.752 0 0 1-13.873 0l-3.101-.263a3.631 3.631 0 0 1-2.255-1.065 4.218 4.218 0 0 1-1.172-2.35 46.332 46.332 0 0 1 0-14.052 4.219 4.219 0 0 1 1.172-2.35A3.631 3.631 0 0 1 5.962 5.56l3.1-.264.002-.001ZM13.23 19.72v-7.438c0-.08.02-.159.057-.228a.436.436 0 0 1 .154-.165.39.39 0 0 1 .418.006l5.698 3.719c.062.04.112.097.148.164a.482.482 0 0 1 0 .445.436.436 0 0 1-.148.165l-5.698 3.719a.39.39 0 0 1-.418.005.435.435 0 0 1-.154-.165.482.482 0 0 1-.057-.227Z" clip-rule="evenodd"/>
</svg>
